!!!!SEGMENT: T693_Ger-w10p92h75m3-9.krn
!!!COM: Gershwin, George
!!!OTL: single movement work
!!!AGN: Orchestral
!!!AGN-sub: Programmatic
!!!CNT: American
!!!ODT: 1928
!!!OPR: An American in Paris, Tone Poem for Orchestra
!!!filename: T693_Ger-w10p92h75m3-9.krn
**kern	**dynam	**kern	**dynam	**kern	**dynam	**kern	**dynam	**kern	**dynam	**kern	**dynam	**kern	**dynam	**kern	**dynam	**kern	**dynam	**kern	**dynam	**kern	**dynam	**kern	**dynam	**kern	**dynam	**kern	**dynam	**kern	**dynam	**kern	**dynam	**kern	**dynam	**kern	**dynam	**kern	**dynam	**kern	**dynam	**kern	**dynam	**kern	**dynam	**kern	**dynam	**kern	**dynam	**kern	**dynam	**kern	**dynam	**kern	**dynam
*grp:A	*	*grp:A	*	*grp:B	*	*grp:B	*	*grp:B	*	*grp:A	*	*grp:A	*	*grp:A	*	*grp:B	*	*grp:A	*	*grp:A	*	*grp:A	*	*grp:A	*	*grp:A	*	*grp:A	*	*grp:A	*	*grp:A	*	*grp:A	*	*grp:A	*	*grp:A	*	*grp:A	*	*grp:A	*	*grp:A	*	*grp:A	*	*grp:A	*	*grp:B	*	*grp:B	*
*part27	*	*part26	*	*part25	*	*part24	*	*part23	*	*part22	*	*part21	*	*part20	*	*part19	*	*part18	*	*part17	*	*part16	*	*part15	*	*part14	*	*part13	*	*part12	*	*part11	*	*part10	*	*part9	*	*part8	*	*part7	*	*part6	*	*part5	*	*part4	*	*part3	*	*part2	*	*part1	*
*staff27	*	*staff26	*	*staff25	*	*staff24	*	*staff23	*	*staff22	*	*staff21	*	*staff20	*	*staff19	*	*staff18	*	*staff17	*	*staff16	*	*staff15	*	*staff14	*	*staff13	*	*staff12	*	*staff11	*	*staff10	*	*staff9	*	*staff8	*	*staff7	*	*staff6	*	*staff5	*	*staff4	*	*staff3	*	*staff2	*	*staff1	*
*ICstr	*	*ICstr	*	*ICstr	*	*ICstr	*	*ICstr	*	*ICww	*	*ICww	*	*ICww	*	*ICidio	*	*ICidio	*	*ICidio	*	*ICidio	*	*ICidio	*	*ICbras	*	*ICbras	*	*ICbras	*	*ICbras	*	*ICbras	*	*ICbras	*	*ICww	*	*ICww	*	*ICww	*	*ICww	*	*ICww	*	*ICww	*	*ICww	*	*ICww	*
*Icbass	*	*Icello	*	*Iviola	*	*Ivioln	*	*Ivioln	*	*IsaxR	*	*IsaxT	*	*IsaxA	*	*Ixylo	*	*Ibdrum	*	*Ipiatt	*	*Isdrum	*	*Itimpa	*	*Itromt&Ituba	*	*Itromt	*	*Itromp	*	*Itromp	*	*Icor	*	*Icor	*	*Ifagot	*	*Iclarb	*	*Iclars	*	*Iclars	*	*Icangl	*	*Ioboe	*	*Iflt|Ipicco	*	*Iflt	*
*I"Contrabass	*	*I"Violoncello	*	*I"Viola	*	*I"Violin II	*	*I"Violin I	*	*I"Baritone Saxophone	*	*I"Tenor Saxophone	*	*I"Alto Saxophone	*	*I"Xylophone	*	*I"Bass Drum	*	*I"Cymbal	*	*I"Snare Drum	*	*I"Timpani	*	*I"Trombone 3, Tuba	*	*I"Trombone 1, 2	*	*I"Trumpet in Bb 3	*	*I"Trumpet in Bb 1, 2	*	*I"Horn in F 3, 4	*	*I"Horn in F 1, 2	*	*I"Bassoon	*	*I"Bass Clarinet in Bb	*	*I"Clarinet in Bb 2	*	*I"Clarinet in Bb 1	*	*I"English Horn	*	*I"Oboe 1, 2	*	*I"Flute 3 or Piccolo	*	*I"Flute 1, 2	*
*I'cb	*	*I'vc	*	*I'vla	*	*I'vn	*	*I'vn	*	*I'bar-sax	*	*I't-sax	*	*I'a-sax	*	*I'xyl	*	*I'b-dr	*	*I'cymb	*	*I'dr	*	*I'timp	*	*I'tn, tb	*	*I'tn	*	*I'tp	*	*I'tp	*	*I'cor-fr	*	*I'cor-fr	*	*I'bn	*	*I'b-cl	*	*I'cl	*	*I'cl	*	*I'cor-en	*	*I'ob	*	*I'picc-fl	*	*I'fl	*
*	*	*	*	*	*	*	*	*	*	*	*	*	*	*	*	*	*	*stria1	*	*stria1	*	*stria1	*	*	*	*	*	*	*	*	*	*	*	*	*	*	*	*	*	*	*	*	*	*	*	*	*	*	*	*	*	*	*
*clefF4	*	*clefF4	*	*clefG2	*	*clefG2	*	*clefG2	*	*clefG2	*	*clefG2	*	*clefG2	*	*clefG2	*	*clefX	*	*clefX	*	*clefX	*	*clefF4	*	*clefF4	*	*clefF4	*	*clefG2	*	*clefG2	*	*clefG2	*	*clefG2	*	*clefF4	*	*clefF4	*	*clefG2	*	*clefG2	*	*clefG2	*	*clefG2	*	*clefG2	*	*clefG2	*
*ITrd7c12	*	*	*	*	*	*	*	*	*	*ITrd5c9	*	*ITrd1c2	*	*ITrd5c9	*	*ITrd-7c-12	*	*	*	*	*	*	*	*	*	*	*	*	*	*ITrd1c2	*	*ITrd1c2	*	*ITrd4c7	*	*ITrd4c7	*	*	*	*ITrd1c2	*	*ITrd1c2	*	*ITrd1c2	*	*ITrd4c7	*	*	*	*ITrd-7c-12	*	*	*
*k[b-]	*	*k[b-]	*	*k[b-]	*	*k[b-]	*	*k[b-]	*	*k[b-]	*	*k[b-]	*	*k[b-]	*	*k[b-]	*	*k[]	*	*k[]	*	*k[]	*	*k[]	*	*k[b-]	*	*k[b-]	*	*k[b-]	*	*k[b-]	*	*k[b-]	*	*k[b-]	*	*k[b-]	*	*k[b-]	*	*k[b-]	*	*k[b-]	*	*k[b-]	*	*k[b-]	*	*k[b-]	*	*k[b-]	*
*F:	*	*F:	*	*F:	*	*F:	*	*F:	*	*F:	*	*F:	*	*F:	*	*F:	*	*C:	*	*C:	*	*C:	*	*C:	*	*F:	*	*F:	*	*F:	*	*F:	*	*F:	*	*F:	*	*F:	*	*F:	*	*F:	*	*F:	*	*F:	*	*F:	*	*F:	*	*F:	*
*M2/4	*	*M2/4	*	*M2/4	*	*M2/4	*	*M2/4	*	*M2/4	*	*M2/4	*	*M2/4	*	*M2/4	*	*M2/4	*	*M2/4	*	*M2/4	*	*M2/4	*	*M2/4	*	*M2/4	*	*M2/4	*	*M2/4	*	*M2/4	*	*M2/4	*	*M2/4	*	*M2/4	*	*M2/4	*	*M2/4	*	*M2/4	*	*M2/4	*	*M2/4	*	*M2/4	*
=657	=657	=657	=657	=657	=657	=657	=657	=657	=657	=657	=657	=657	=657	=657	=657	=657	=657	=657	=657	=657	=657	=657	=657	=657	=657	=657	=657	=657	=657	=657	=657	=657	=657	=657	=657	=657	=657	=657	=657	=657	=657	=657	=657	=657	=657	=657	=657	=657	=657	=657	=657	=657	=657
*	*	*	*	*	*	*	*	*	*	*	*	*	*	*	*	*	*	*	*	*	*	*	*	*	*	*	*	*^	*	*	*	*^	*	*	*	*	*	*	*	*	*	*	*	*	*	*	*	*	*	*	*	*^	*
!	!	!	!	!	!	!	!	!	!	!	!	!	!	!	!	!	!	!	!	!	!	!	!	!LO:TX:t=[[quarter]=140]	!	!	!	!	!	!	!	!	!	!	!	!	!	!	!	!	!	!	!	!	!	!	!	!	!	!	!	!	!	!LO:TX:t=[[quarter]=140]	!	!
!	!LO:DY:ed=brack	!LO:TX:a:t=[div.]	!LO:DY:ed=brack	!	!LO:DY:ed=brack	!	!LO:DY:ed=brack	!	!LO:DY:ed=brack	!	!	!	!	!	!	!	!LO:DY:ed=brack	!	!	!	!	!	!	!	!LO:DY:ed=brack	!	!LO:DY:ed=brack	!	!	!	!	!	!	!	!	!	!LO:DY:ed=brack	!	!LO:DY:ed=brack	!	!LO:DY:ed=brack	!	!LO:DY:ed=brack	!	!	!	!	!	!LO:DY:ed=brack	!	!	!	!LO:DY:ed=brack	!	!	!LO:DY:ed=brack
*	*	*	*	*	*	*	*	*	*	*	*	*	*	*	*	*8va	*	*	*	*	*	*	*	*	*	*	*	*	*	*	*	*	*	*	*	*	*	*	*	*	*	*	*	*	*	*	*	*	*	*	*	*	*	*	*	*
*	*	*	*	*	*	*	*	*	*	*	*	*	*	*	*	*	*	*	*	*	*	*	*	*	*	*	*	*	*	*	*	*	*	*	*	*	*	*	*	*^	*	*	*	*	*	*	*	*	*	*	*	*	*	*	*	*
*	*	*	*	*	*	*	*	*	*	*	*	*	*	*	*	*	*	*	*	*	*	*	*	*	*	*^	*	*	*	*	*	*	*	*	*	*	*	*	*	*	*	*	*	*	*	*	*	*	*	*	*	*	*	*	*	*	*
8FF^L	mf	8FF^L 8C	mf	8g'^L	f	8cc'^L	f	8gg'^L	f	2r	.	2r	.	2r	.	8ggg^L	f	8r	.	8r	.	8r	.	8FF^>L	mf	\8FF'<^<L	/8C'>^>L	mf	8r	8r	.	2r	.	8r	8r	.	2B-_ 2c_	f	2B-_ 2c_	f	\8FF'<^<L	/8C'>^>L	mf	2B-_	f	8r	.	8r	.	2c_	f	8r	8r	8gg'^L	f	8g'<^<L<	8cc'>^>L>	f
*	*	*	*	*	*	*	*	*	*	*	*	*	*	*	*	*	*	*	*	*	*	*tremolo	*	*	*	*	*	*	*	*	*	*	*	*	*	*	*	*	*	*	*	*	*	*	*	*	*	*	*	*	*	*	*	*	*	*	*	*
*	*	*	*	*	*	*	*	*	*	*	*	*	*	*	*	*	*	*	*	*	*	*	*	*	*	*	*	*	*	*	*	*	*	*	*	*	*	*	*	*	*	*	*	*	*	*	*	*	*	*	*	*^	*	*	*	*	*	*
!	!	!	!	!	!	!	!	!	!	!	!	!	!	!	!	!	!	!	!	!	!	!	!	!	!	!	!	!	!LO:TX:a:t=[a 2]	!	!	!	!	!LO:TX:a:t=[a 2]	!	!	!	!	!	!	!	!	!	!	!	!	!LO:DY:ed=brack	!	!LO:DY:ed=brack	!	!	!	!	!LO:DY:ed=brack	!	!	!	!	!
.	.	.	.	.	.	.	.	.	.	.	.	.	.	.	.	.	.	.	.	.	.	.	.	.	.	.	.	.	.	.	.	.	.	.	.	.	.	.	.	.	.	.	.	.	.	(<8qa/	f	(<8qdd/	f	.	.	\(8qa	/(8qdd	f	.	.	.	.	.
!	!	!	!	!	!	!	!	!	!	!	!	!	!	!	!	!	!	!	!	!	!	!LO:TX:t=P:problem:Tremolos in the same measure should be beamed.	!	!	!	!	!	!	!	!	!	!	!	!	!	!	!	!	!	!	!	!	!	!	!	!	!	!	!	!	!	!	!	!	!	!	!	!	!
!	!	!	!	!	!	!	!	!	!	!	!	!	!	!	!	!	!	!	!LO:DY:ed=brack	!	!LO:DY:ed=brack	!	!LO:DY:ed=brack	!	!	!	!	!	!	!	!LO:DY:ed=brack	!	!	!	!	!LO:DY:ed=brack	!	!	!	!	!	!	!	!	!	!	!	!	!	!	!	!	!	!	!	!	!	!	!
8r	.	8B-^J 8c	.	16ffL	.	16cccL	.	16fffL	.	.	.	.	.	.	.	16ffffL	.	8Re/	mf	8Re/	mf	32Re/L	mf	8C^>J	.	8r	8r	.	(8F^	(8F^	f	.	.	(8f^	(8f^	f	.	.	.	.	8r	8r	.	.	.	8b-'^L)	.	8cc'^L)	.	.	.	\8b-'<^<L)	/8cc'>^>L)	.	16fffL	.	16ffL	16cccL	.
.	.	.	.	.	.	.	.	.	.	.	.	.	.	.	.	.	.	.	.	.	.	32Re/	.	.	.	.	.	.	.	.	.	.	.	.	.	.	.	.	.	.	.	.	.	.	.	.	.	.	.	.	.	.	.	.	.	.	.	.	.
.	.	.	.	16ffJJ	.	16cccJJ	.	16fffJJ	.	.	.	.	.	.	.	16ffffJJ	.	.	.	.	.	32Re/	.	.	.	.	.	.	.	.	.	.	.	.	.	.	.	.	.	.	.	.	.	.	.	.	.	.	.	.	.	.	.	.	16fffJJ	.	16ffJJ	16cccJJ	.
.	.	.	.	.	.	.	.	.	.	.	.	.	.	.	.	.	.	.	.	.	.	32Re/J	.	.	.	.	.	.	.	.	.	.	.	.	.	.	.	.	.	.	.	.	.	.	.	.	.	.	.	.	.	.	.	.	.	.	.	.	.
8FF^J	.	8FF^L 8C	.	16ffLL	.	16cccLL	.	16fffLL	.	.	.	.	.	.	.	16ffffLL	.	8r	.	8r	.	8r	.	8FF^>L	.	8FF'<^<J	8C'>^>J	.	8G'L)	8G'L)	.	.	.	8g'L)	8g'L)	.	.	.	.	.	8FF'<^<J	8C'>^>J	.	.	.	8r	.	8r	.	.	.	8r	8r	.	16fffLL	.	16ffLL<	16cccLL>	.
.	.	.	.	16ffJ	.	16cccJ	.	16fffJ	.	.	.	.	.	.	.	16ffffJ	.	.	.	.	.	.	.	.	.	.	.	.	.	.	.	.	.	.	.	.	.	.	.	.	.	.	.	.	.	.	.	.	.	.	.	.	.	.	16fffJ	.	16ffJ	16cccJ	.
.	.	.	.	.	.	.	.	.	.	.	.	.	.	.	.	.	.	.	.	.	.	.	.	.	.	.	.	.	.	.	.	.	.	.	.	.	.	.	.	.	.	.	.	.	.	(<8qa/	.	(<8qdd/	.	.	.	\(8qa	/(8qdd	.	.	.	.	.	.
8r	.	8B-^J 8c	.	8gg'^J	.	8ccc'^J	.	8ggg'^J	.	.	.	.	.	.	.	8gggg^J	.	8Re/	.	8Re/	.	32Re/L	.	8C^>J	.	8r	8r	.	8E^J	8E^J	.	.	.	8e^J	8e^J	.	.	.	.	.	8r	8r	.	.	.	8b-'^J)	.	8cc'^J)	.	.	.	\8b-'<^<J)	/8cc'>^>J)	.	8ggg'^J	.	8gg'<^<J	8ccc'>^>J	.
.	.	.	.	.	.	.	.	.	.	.	.	.	.	.	.	.	.	.	.	.	.	32Re/	.	.	.	.	.	.	.	.	.	.	.	.	.	.	.	.	.	.	.	.	.	.	.	.	.	.	.	.	.	.	.	.	.	.	.	.	.
.	.	.	.	.	.	.	.	.	.	.	.	.	.	.	.	.	.	.	.	.	.	32Re/	.	.	.	.	.	.	.	.	.	.	.	.	.	.	.	.	.	.	.	.	.	.	.	.	.	.	.	.	.	.	.	.	.	.	.	.	.
.	.	.	.	.	.	.	.	.	.	.	.	.	.	.	.	.	.	.	.	.	.	32Re/J	.	.	.	.	.	.	.	.	.	.	.	.	.	.	.	.	.	.	.	.	.	.	.	.	.	.	.	.	.	.	.	.	.	.	.	.	.
=658	=658	=658	=658	=658	=658	=658	=658	=658	=658	=658	=658	=658	=658	=658	=658	=658	=658	=658	=658	=658	=658	=658	=658	=658	=658	=658	=658	=658	=658	=658	=658	=658	=658	=658	=658	=658	=658	=658	=658	=658	=658	=658	=658	=658	=658	=658	=658	=658	=658	=658	=658	=658	=658	=658	=658	=658	=658	=658	=658
8FF^L	.	8FF^L 8C	.	16ccLL	.	16ggLL	.	16cccLL	.	2r	.	2r	.	2r	.	16ccccLL	.	4r	.	4r	.	4r	.	8FF^>L	.	\8FF'<^<L	/8C'>^>L	.	8F^L	8F^L	.	2r	.	8f^L	8f^L	.	2B-_ 2c_	.	2B-_ 2c_	.	\8FF'<^<L	/8C'>^>L	.	2B-_	.	4r	.	4r	.	2c_	.	4r	4r	.	16cccLL	.	16ccLL<	16ggLL>	.
.	.	.	.	16cc	.	16gg	.	16ccc	.	.	.	.	.	.	.	16cccc	.	.	.	.	.	.	.	.	.	.	.	.	.	.	.	.	.	.	.	.	.	.	.	.	.	.	.	.	.	.	.	.	.	.	.	.	.	.	16ccc	.	16cc	16gg	.
8FF^J	.	8FF^J 8C	.	16cc	.	16gg	.	16ccc	.	.	.	.	.	.	.	16cccc	.	.	.	.	.	.	.	8FF^>J	.	8FF'<^<J	8C'>^>J	.	8E^J	8E^J	.	.	.	8e^J	8e^J	.	.	.	.	.	8FF'<^<J	8C'>^>J	.	.	.	.	.	.	.	.	.	.	.	.	16ccc	.	16cc	16gg	.
.	.	.	.	16ccJJ	.	16ggJJ	.	16cccJJ	.	.	.	.	.	.	.	16ccccJJ	.	.	.	.	.	.	.	.	.	.	.	.	.	.	.	.	.	.	.	.	.	.	.	.	.	.	.	.	.	.	.	.	.	.	.	.	.	.	16cccJJ	.	16ccJJ	16ggJJ	.
.	.	.	.	.	.	.	.	.	.	.	.	.	.	.	.	.	.	.	.	.	.	.	.	.	.	.	.	.	.	.	.	.	.	.	.	.	.	.	.	.	.	.	.	.	.	(<8qa/	.	(<8qdd/	.	.	.	\(8qa	/(>8qdd	.	.	.	.	.	.
8r	.	8B-^L 8c	.	8dd'^>L	.	8gg'^L	.	8ddd'^L	.	.	.	.	.	.	.	8dddd^>L	.	8Re/	.	8Re/	.	32Re/L	.	8C^>L	.	8r	8r	.	8D^L	8D^L	.	.	.	8d^L	8d^L	.	.	.	.	.	8r	8r	.	.	.	8b-'^)	.	8cc'^)	.	.	.	\8b-'<^<)	/8cc'>^>)	.	8ddd'>^>L	.	8dd'<^<L<	8gg'>^>L>	.
.	.	.	.	.	.	.	.	.	.	.	.	.	.	.	.	.	.	.	.	.	.	32Re/	.	.	.	.	.	.	.	.	.	.	.	.	.	.	.	.	.	.	.	.	.	.	.	.	.	.	.	.	.	.	.	.	.	.	.	.	.
.	.	.	.	.	.	.	.	.	.	.	.	.	.	.	.	.	.	.	.	.	.	32Re/	.	.	.	.	.	.	.	.	.	.	.	.	.	.	.	.	.	.	.	.	.	.	.	.	.	.	.	.	.	.	.	.	.	.	.	.	.
.	.	.	.	.	.	.	.	.	.	.	.	.	.	.	.	.	.	.	.	.	.	32Re/J	.	.	.	.	.	.	.	.	.	.	.	.	.	.	.	.	.	.	.	.	.	.	.	.	.	.	.	.	.	.	.	.	.	.	.	.	.
8FF^	.	8FF^J 8C	.	16fL	.	16ccL	.	16ffL	.	.	.	.	.	.	.	16fffL	.	8r	.	8r	.	8r	.	8FF^>J	.	\8FF'<^<	/8C'>^>	.	(8F^J	(8F^J	.	.	.	(8f^J	(8f^J	.	.	.	.	.	\8FF'<^<	/8C'>^>	.	.	.	8r	.	8r	.	.	.	8r	8r	.	16ffL	.	16fL	16ccL	.
.	.	.	.	16fJJ	.	16ccJJ	.	16ffJJ	.	.	.	.	.	.	.	16fffJJ	.	.	.	.	.	.	.	.	.	.	.	.	.	.	.	.	.	.	.	.	.	.	.	.	.	.	.	.	.	.	.	.	.	.	.	.	.	.	16ffJJ	.	16fJJ	16ccJJ	.
=659	=659	=659	=659	=659	=659	=659	=659	=659	=659	=659	=659	=659	=659	=659	=659	=659	=659	=659	=659	=659	=659	=659	=659	=659	=659	=659	=659	=659	=659	=659	=659	=659	=659	=659	=659	=659	=659	=659	=659	=659	=659	=659	=659	=659	=659	=659	=659	=659	=659	=659	=659	=659	=659	=659	=659	=659	=659	=659	=659
8FF^L	.	8FF^L 8C	.	16fLL	.	16ccLL	.	16ffLL	.	2r	.	2r	.	2r	.	16fffLL	.	8r	.	8r	.	8r	.	8FF^>L	.	\8FF'<^<L	/8C'>^>L	.	8G'L)	8G'L)	.	2r	.	8g'L)	8g'L)	.	2B-] 2c]	.	2B-] 2c]	.	\8FF'<^<L	/8C'>^>L	.	2B-_	.	8r	.	8r	.	2c_	.	8r	8r	.	16ffLL	.	16fLL<	16ccLL>	.
.	.	.	.	16fJ	.	16ccJ	.	16ffJ	.	.	.	.	.	.	.	16fffJ	.	.	.	.	.	.	.	.	.	.	.	.	.	.	.	.	.	.	.	.	.	.	.	.	.	.	.	.	.	.	.	.	.	.	.	.	.	.	16ffJ	.	16fJ	16ccJ	.
.	.	.	.	.	.	.	.	.	.	.	.	.	.	.	.	.	.	.	.	.	.	.	.	.	.	.	.	.	.	.	.	.	.	.	.	.	.	.	.	.	.	.	.	.	.	(<8qa/	.	(<8qdd/	.	.	.	\(8qa	/(8qdd	.	.	.	.	.	.
8r	.	8B-^J 8c	.	8g'^>J	.	8cc'^J	.	8gg'^J	.	.	.	.	.	.	.	8ggg^>J	.	8Re/	.	8Re/	.	32Re/L	.	8C^>J	.	8r	8r	.	8E^J	8E^J	.	.	.	8e^J	8e^J	.	.	.	.	.	8r	8r	.	.	.	8b-'^L)	.	8cc'^L)	.	.	.	\8b-'<^<L)	/8cc'>^>L)	.	8gg'^>J	.	8g'<^<J	8cc'>^>J	.
.	.	.	.	.	.	.	.	.	.	.	.	.	.	.	.	.	.	.	.	.	.	32Re/	.	.	.	.	.	.	.	.	.	.	.	.	.	.	.	.	.	.	.	.	.	.	.	.	.	.	.	.	.	.	.	.	.	.	.	.	.
.	.	.	.	.	.	.	.	.	.	.	.	.	.	.	.	.	.	.	.	.	.	32Re/	.	.	.	.	.	.	.	.	.	.	.	.	.	.	.	.	.	.	.	.	.	.	.	.	.	.	.	.	.	.	.	.	.	.	.	.	.
.	.	.	.	.	.	.	.	.	.	.	.	.	.	.	.	.	.	.	.	.	.	32Re/J	.	.	.	.	.	.	.	.	.	.	.	.	.	.	.	.	.	.	.	.	.	.	.	.	.	.	.	.	.	.	.	.	.	.	.	.	.
8FF^J	.	8FF^L 8C	.	16ffLL	.	16cccLL	.	16fffLL	.	.	.	.	.	.	.	16ffffLL	.	8r	.	8r	.	8r	.	8FF^>L	.	8FF'<^<J	8C'>^>J	.	8F^L	8F^L	.	.	.	8f^L	8f^L	.	.	.	.	.	8FF'<^<J	8C'>^>J	.	.	.	8r	.	8r	.	.	.	8r	8r	.	16fffLL	.	16ffLL<	16cccLL>	.
.	.	.	.	16ff	.	16ccc	.	16fff	.	.	.	.	.	.	.	16ffff	.	.	.	.	.	.	.	.	.	.	.	.	.	.	.	.	.	.	.	.	.	.	.	.	.	.	.	.	.	.	.	.	.	.	.	.	.	.	16fff	.	16ff	16ccc	.
.	.	.	.	.	.	.	.	.	.	.	.	.	.	.	.	.	.	.	.	.	.	.	.	.	.	.	.	.	.	.	.	.	.	.	.	.	.	.	.	.	.	.	.	.	.	(<8qa/	.	(<8qdd/	.	.	.	\(8qa	/(8qdd	.	.	.	.	.	.
8r	.	8B-^J 8c	.	16ff	.	16ccc	.	16fff	.	.	.	.	.	.	.	16ffff	.	8Re/	.	8Re/	.	32Re/L	.	8C^>J	.	8r	8r	.	8E^J	8E^J	.	.	.	8e^J	8e^J	.	.	.	.	.	8r	8r	.	.	.	8b-'^J)	.	8cc'^J)	.	.	.	\8b-'<^<J)	/8cc'>^>J)	.	16fff	.	16ff	16ccc	.
.	.	.	.	.	.	.	.	.	.	.	.	.	.	.	.	.	.	.	.	.	.	32Re/	.	.	.	.	.	.	.	.	.	.	.	.	.	.	.	.	.	.	.	.	.	.	.	.	.	.	.	.	.	.	.	.	.	.	.	.	.
.	.	.	.	16ffJJ	.	16cccJJ	.	16fffJJ	.	.	.	.	.	.	.	16ffffJJ	.	.	.	.	.	32Re/	.	.	.	.	.	.	.	.	.	.	.	.	.	.	.	.	.	.	.	.	.	.	.	.	.	.	.	.	.	.	.	.	16fffJJ	.	16ffJJ	16cccJJ	.
.	.	.	.	.	.	.	.	.	.	.	.	.	.	.	.	.	.	.	.	.	.	32Re/J	.	.	.	.	.	.	.	.	.	.	.	.	.	.	.	.	.	.	.	.	.	.	.	.	.	.	.	.	.	.	.	.	.	.	.	.	.
=660	=660	=660	=660	=660	=660	=660	=660	=660	=660	=660	=660	=660	=660	=660	=660	=660	=660	=660	=660	=660	=660	=660	=660	=660	=660	=660	=660	=660	=660	=660	=660	=660	=660	=660	=660	=660	=660	=660	=660	=660	=660	=660	=660	=660	=660	=660	=660	=660	=660	=660	=660	=660	=660	=660	=660	=660	=660	=660	=660
8FF^L	.	8FF^L 8C	.	8gg'^L	.	8ccc'^L	.	8ggg'^L	.	4r	.	4r	.	4r	.	8gggg^L	.	4r	.	4r	.	4r	.	8FF^>L	.	\8FF'<^<L	/8C'>^>L	.	8D^L	8D^L	.	2r	.	8d^L	8d^L	.	4r	.	4r	.	\8FF'<^<L	/8C'>^>L	.	2B-]	.	4r	.	4r	.	2c]	.	4r	4r	.	8ggg'^L	.	8gg'<^<L<	8ccc'>^>L>	.
8FF^J	.	8FF^J 8C	.	16ccL	.	16ggL	.	16cccL	.	.	.	.	.	.	.	16ccccL	.	.	.	.	.	.	.	8FF^>J	.	8FF'<^<J	8C'>^>J	.	(8F^J	(8F^J	.	.	.	(8f^J	(8f^J	.	.	.	.	.	8FF'<^<J	8C'>^>J	.	.	.	.	.	.	.	.	.	.	.	.	16cccL	.	16ccL	16ggL	.
.	.	.	.	16ccJJ	.	16ggJJ	.	16cccJJ	.	.	.	.	.	.	.	16ccccJJ	.	.	.	.	.	.	.	.	.	.	.	.	.	.	.	.	.	.	.	.	.	.	.	.	.	.	.	.	.	.	.	.	.	.	.	.	.	.	16cccJJ	.	16ccJJ	16ggJJ	.
.	.	.	.	.	.	.	.	.	.	.	.	.	.	.	.	.	.	.	.	.	.	.	.	.	.	.	.	.	.	.	.	.	.	.	.	.	.	.	.	.	.	.	.	.	.	(<8qa/	.	(<8qdd/	.	.	.	\(8qa	(>8qdd	.	.	.	.	.	.
*	*	*	*	*	*	*	*	*	*	*	*	*	*	*	*	*	*	*	*	*	*	*	*	*	*	*	*	*	*	*	*	*	*	*	*	*	*	*	*^	*	*	*	*	*	*	*	*	*	*	*	*	*	*	*	*	*	*	*	*
*	*	*	*	*	*	*	*	*	*	*	*	*	*	*	*	*	*	*	*	*	*	*	*	*	*	*	*	*	*	*	*	*	*	*	*	*	*^	*	*	*	*	*	*	*	*	*	*	*	*	*	*	*	*	*	*	*	*	*	*	*
!	!	!	!	!	!	!	!	!	!	!LO:TUP:a:br	!	!LO:TUP:a:br	!	!LO:TUP:a:br	!	!	!	!	!	!	!	!	!	!	!	!	!	!	!	!	!	!	!	!	!	!	!LO:TUP:br	!LO:TUP:br	!	!LO:TUP:br	!LO:TUP:br	!	!	!	!	!	!	!	!	!	!	!	!	!	!	!	!	!	!	!	!
8r	.	8B-^L 8c	.	16ccLL	.	16ggLL	.	16cccLL	.	12cc^L	f	12ee^L	f	12g^L	f	16ccccLL	.	8Re/	.	8Re/	.	32Re/L	.	8C^>L	.	8r	8r	.	8G')	8G')	.	.	.	8g')	8g')	.	\12c^<L	/12g^>L	f	\12e^<L	/12g^>L	f	8r	8r	.	.	.	8b-'^)	.	8cc'^)	.	.	.	\8b-'<^<)	/8cc'>^>)	.	16cccLL	.	16ccLL<	16ggLL>	.
.	.	.	.	.	.	.	.	.	.	.	.	.	.	.	.	.	.	.	.	.	.	32Re/	.	.	.	.	.	.	.	.	.	.	.	.	.	.	.	.	.	.	.	.	.	.	.	.	.	.	.	.	.	.	.	.	.	.	.	.	.	.	.
.	.	.	.	16ccJ	.	16ggJ	.	16cccJ	.	.	.	.	.	.	.	16ccccJ	.	.	.	.	.	32Re/	.	.	.	.	.	.	.	.	.	.	.	.	.	.	.	.	.	.	.	.	.	.	.	.	.	.	.	.	.	.	.	.	.	.	16cccJ	.	16ccJ	16ggJ	.
.	.	.	.	.	.	.	.	.	.	12a^	.	12cc^	.	12e^	.	.	.	.	.	.	.	.	.	.	.	.	.	.	.	.	.	.	.	.	.	.	12A^<	12e^>	.	12c^<	12e^>	.	.	.	.	.	.	.	.	.	.	.	.	.	.	.	.	.	.	.	.
.	.	.	.	.	.	.	.	.	.	.	.	.	.	.	.	.	.	.	.	.	.	32Re/J	.	.	.	.	.	.	.	.	.	.	.	.	.	.	.	.	.	.	.	.	.	.	.	.	.	.	.	.	.	.	.	.	.	.	.	.	.	.	.
8FF^	.	8FF^J 8C	.	8dd'^J	.	8gg'^J	.	8ddd'^J	.	.	.	.	.	.	.	8dddd^J	.	8r	.	8r	.	8r	.	8FF^>J	.	\8FF'<^<	/8C'>^>	.	8r	8r	.	.	.	8r	8r	.	.	.	.	.	.	.	\8FF'<^<	/8C'>^>	.	.	.	8r	.	8r	.	.	.	8r	8r	.	8ddd'^J	.	8dd'<^<J	8gg'>^>J	.
*	*	*	*	*	*	*	*	*	*	*	*	*	*	*	*	*	*	*	*	*	*	*	*	*	*	*	*	*	*	*	*	*	*	*	*	*	*	*	*	*	*	*	*	*	*	*	*	*	*	*	*	*	*	*v	*v	*	*	*	*	*	*
*	*	*	*	*	*	*	*	*	*	*	*	*	*	*	*	*X8va	*	*	*	*	*	*	*	*	*	*	*	*	*	*	*	*	*	*	*	*	*	*	*	*	*	*	*	*	*	*	*	*	*	*	*	*	*	*	*	*	*	*	*	*
.	.	.	.	.	.	.	.	.	.	12b-^J	.	12dd^J	.	12f^J	.	.	.	.	.	.	.	.	.	.	.	.	.	.	.	.	.	.	.	.	.	.	12B-X^<J	12f^>J	.	12d^<J	12f^>J	.	.	.	.	.	.	.	.	.	.	.	.	.	.	.	.	.	.	.
*	*	*	*	*	*	*	*	*	*	*	*	*	*	*	*	*	*	*	*	*	*	*	*	*	*	*	*	*	*v	*v	*	*	*	*v	*v	*	*	*	*	*	*	*	*	*	*	*	*	*	*	*	*	*	*	*	*	*	*	*	*	*
=661	=661	=661	=661	=661	=661	=661	=661	=661	=661	=661	=661	=661	=661	=661	=661	=661	=661	=661	=661	=661	=661	=661	=661	=661	=661	=661	=661	=661	=661	=661	=661	=661	=661	=661	=661	=661	=661	=661	=661	=661	=661	=661	=661	=661	=661	=661	=661	=661	=661	=661	=661	=661	=661	=661	=661	=661	=661	=661
*	*	*	*	*	*	*	*	*	*	*	*	*	*	*	*	*	*	*	*	*	*	*	*	*	*	*	*	*	*	*	*	*	*	*	*	*	*	*	*	*	*	*	*	*	*	*	*	*	*	*	*	*^	*	*	*	*	*	*
!	!	!	!	!	!	!	!	!	!	!LO:TUP:a:br	!	!LO:TUP:a:br	!	!LO:TUP:a:br	!	!	!	!	!	!	!	!	!	!	!	!	!	!	!	!	!	!	!	!	!LO:TUP:br	!LO:TUP:br	!	!LO:TUP:br	!LO:TUP:br	!	!	!	!	!LO:TUP:a:br	!	!LO:TUP:a:br	!	!LO:TUP:a:br	!	!	!	!LO:TUP:br	!LO:TUP:br	!	!	!	!	!	!
8FF^L	.	8FF'^>L 8C	.	16fLL	.	16ccLL	.	16ffLL	.	12a^L	.	12cc^L	.	12e^L	.	2r	.	8r	.	8r	.	8r	.	8FF^>L	.	\8FF'<^<L	/8C'>^>L	.	2r	.	2r	.	2r	.	\12A^<L	/12e^>L	.	\12c^<L	/12e^>L	.	\8FF'<^<L	/8C'>^>L	.	12e^L	.	12ee^L	.	12ee^L	.	2r	.	\12a^<L	/12cc^>L	.	16ffLL	.	16fLL<	16ccLL>	.
.	.	.	.	16f	.	16cc	.	16ff	.	.	.	.	.	.	.	.	.	.	.	.	.	.	.	.	.	.	.	.	.	.	.	.	.	.	.	.	.	.	.	.	.	.	.	.	.	.	.	.	.	.	.	.	.	.	16ff	.	16f	16cc	.
.	.	.	.	.	.	.	.	.	.	12g^	.	12b-^	.	12d^	.	.	.	.	.	.	.	.	.	.	.	.	.	.	.	.	.	.	.	.	12G^<	12d^>	.	12B-^<	12d^>	.	.	.	.	12d^	.	12dd^	.	12dd^	.	.	.	12g^<	12b-^>	.	.	.	.	.	.
8r	.	8r	.	16f	.	16cc	.	16ff	.	.	.	.	.	.	.	.	.	8Re/	.	8Re/	.	32Re/L	.	8C^>J	.	8r	8r	.	.	.	.	.	.	.	.	.	.	.	.	.	8r	8r	.	.	.	.	.	.	.	.	.	.	.	.	16ff	.	16f	16cc	.
.	.	.	.	.	.	.	.	.	.	.	.	.	.	.	.	.	.	.	.	.	.	32Re/	.	.	.	.	.	.	.	.	.	.	.	.	.	.	.	.	.	.	.	.	.	.	.	.	.	.	.	.	.	.	.	.	.	.	.	.	.
.	.	.	.	.	.	.	.	.	.	12b-^J	.	12dd^J	.	12f^J	.	.	.	.	.	.	.	.	.	.	.	.	.	.	.	.	.	.	.	.	12B-^<J	12f^>J	.	12d^<J	12f^>J	.	.	.	.	12f^J	.	12ff^J	.	12ff^J	.	.	.	12b-^<J	12dd^>J	.	.	.	.	.	.
.	.	.	.	16fJJ	.	16ccJJ	.	16ffJJ	.	.	.	.	.	.	.	.	.	.	.	.	.	32Re/	.	.	.	.	.	.	.	.	.	.	.	.	.	.	.	.	.	.	.	.	.	.	.	.	.	.	.	.	.	.	.	.	16ffJJ	.	16fJJ	16ccJJ	.
.	.	.	.	.	.	.	.	.	.	.	.	.	.	.	.	.	.	.	.	.	.	32Re/J	.	.	.	.	.	.	.	.	.	.	.	.	.	.	.	.	.	.	.	.	.	.	.	.	.	.	.	.	.	.	.	.	.	.	.	.	.
!	!	!	!	!	!	!	!	!	!	!LO:TUP:a:br	!	!LO:TUP:a:br	!	!LO:TUP:a:br	!	!	!	!	!	!	!	!	!	!	!	!	!	!	!	!	!	!	!	!	!LO:TUP:br	!LO:TUP:br	!	!LO:TUP:br	!LO:TUP:br	!	!	!	!	!LO:TUP:a:br	!	!LO:TUP:a:br	!	!LO:TUP:a:br	!	!	!	!LO:TUP:br	!LO:TUP:br	!	!	!	!	!	!
8FF^J	.	8FF'^>J 8C	.	8g'^>	.	8cc'^	.	8gg'^	.	12cc^L	.	12ee^L	.	12g^L	.	.	.	8r	.	8r	.	8r	.	8FF^>L	.	8FF'<^<J	8C'>^>J	.	.	.	.	.	.	.	\12c^<L	/12g^>L	.	\12e^<L	/12g^>L	.	8FF'<^<J	8C'>^>J	.	12g^L	.	12gg^L	.	12gg^L	.	.	.	\12cc^<L	/12ee^>L	.	8gg'^>	.	\8g'<^<	/8cc'>^>	.
.	.	.	.	.	.	.	.	.	.	12a^	.	12cc^	.	12e^	.	.	.	.	.	.	.	.	.	.	.	.	.	.	.	.	.	.	.	.	12A^<	12e^>	.	12c^<	12e^>	.	.	.	.	12e^	.	12ee^	.	12ee^	.	.	.	12a^<	12cc^>	.	.	.	.	.	.
8r	.	8r	.	8r	.	8r	.	8r	.	.	.	.	.	.	.	.	.	8Re/	.	8Re/	.	32Re/L	.	8C^>J	.	8r	8r	.	.	.	.	.	.	.	.	.	.	.	.	.	8r	8r	.	.	.	.	.	.	.	.	.	.	.	.	8r	.	8r	8r	.
.	.	.	.	.	.	.	.	.	.	.	.	.	.	.	.	.	.	.	.	.	.	32Re/	.	.	.	.	.	.	.	.	.	.	.	.	.	.	.	.	.	.	.	.	.	.	.	.	.	.	.	.	.	.	.	.	.	.	.	.	.
.	.	.	.	.	.	.	.	.	.	12b-^J	.	12dd^J	.	12f^J	.	.	.	.	.	.	.	.	.	.	.	.	.	.	.	.	.	.	.	.	12B-^<J	12f^>J	.	12d^<J	12f^>J	.	.	.	.	12f^J	.	12ff^J	.	12ff^J	.	.	.	12b-^<J	12dd^>J	.	.	.	.	.	.
.	.	.	.	.	.	.	.	.	.	.	.	.	.	.	.	.	.	.	.	.	.	32Re/	.	.	.	.	.	.	.	.	.	.	.	.	.	.	.	.	.	.	.	.	.	.	.	.	.	.	.	.	.	.	.	.	.	.	.	.	.
.	.	.	.	.	.	.	.	.	.	.	.	.	.	.	.	.	.	.	.	.	.	32Re/J	.	.	.	.	.	.	.	.	.	.	.	.	.	.	.	.	.	.	.	.	.	.	.	.	.	.	.	.	.	.	.	.	.	.	.	.	.
*	*	*	*	*	*	*	*	*	*	*	*	*	*	*	*	*	*	*	*	*	*	*	*	*	*	*v	*v	*	*	*	*	*	*	*	*	*	*	*	*	*	*	*	*	*	*	*	*	*	*	*	*	*	*	*	*	*	*	*	*
*	*	*	*	*	*	*	*	*	*	*	*	*	*	*	*	*	*	*	*	*	*	*Xtremolo	*	*	*	*	*	*	*	*	*	*	*	*	*	*	*	*	*	*	*	*	*	*	*	*	*	*	*	*	*	*	*	*	*	*	*	*
=662	=662	=662	=662	=662	=662	=662	=662	=662	=662	=662	=662	=662	=662	=662	=662	=662	=662	=662	=662	=662	=662	=662	=662	=662	=662	=662	=662	=662	=662	=662	=662	=662	=662	=662	=662	=662	=662	=662	=662	=662	=662	=662	=662	=662	=662	=662	=662	=662	=662	=662	=662	=662	=662	=662	=662	=662	=662	=662
*	*	*	*	*	*	*	*	*	*	*	*	*	*	*	*	*	*	*	*	*	*	*	*	*	*	*^	*	*	*	*	*	*	*	*	*	*	*	*	*	*	*	*	*	*	*	*	*	*	*	*	*	*	*	*	*	*	*	*
*	*	*	*	*	*	*	*	*	*	*	*	*	*	*	*	*	*	*	*	*	*	*	*	*	*	*	*	*	*	*	*	*	*^	*	*	*	*	*	*	*	*	*	*	*	*	*	*	*	*	*	*	*	*	*	*	*	*	*	*
*	*	*	*	*	*	*	*	*	*	*	*	*	*	*	*	*	*	*	*	*	*	*	*	*	*	*	*	*	*^	*	*	*	*	*	*	*	*	*	*	*	*	*	*	*	*	*	*	*	*	*	*	*	*	*	*	*	*	*	*	*
*grp:A	*	*grp:A	*	*grp:B	*	*grp:B	*	*grp:B	*	*grp:A	*	*grp:A	*	*grp:A	*	*grp:A	*	*grp:A	*	*grp:A	*	*grp:A	*	*grp:A	*	*grp:A	*grp:A	*	*grp:A	*grp:A	*	*grp:A	*	*grp:A	*grp:A	*	*grp:A	*grp:A	*	*grp:A	*grp:A	*	*grp:A	*grp:A	*	*grp:A	*	*grp:A	*	*grp:A	*	*grp:A	*	*grp:A	*grp:A	*	*grp:A	*	*grp:A	*grp:A	*
!	!	!	!	!LO:TUP:br:r=8	!	!LO:TUP:a:br:r=8	!	!LO:TUP:a:br:r=8	!	!	!	!	!	!	!	!	!	!	!	!	!	!	!	!	!	!	!	!	!	!	!	!	!	!	!	!	!	!	!	!	!	!	!	!	!	!	!	!	!	!	!	!	!	!	!	!	!	!	!	!	!
8FF^L	.	8FF'^>L 8C	.	24cLL	.	24ccLL	.	24ccLL	.	16a^LL	.	16cc^LL	.	16e^LL	.	2r	.	2r	.	2r	.	16Re^/LL	.	16FF^>LL	.	8c^L	2rBB	.	8c^L	8c^L	.	16a^LL	f	\16cc^<LL	/16ee^>LL	.	\16A^<LL	/16e^>LL	.	\16c^<LL	/16e^>LL	.	\8FF'<^<L	/8C'>^>L	.	16e^LL	.	16ee^LL	.	16ee^LL	.	2r	.	\16a^<LL	/16cc^>LL	.	8ccc^LT	.	40cc^LLLT	8ccL	.
.	.	.	.	.	.	.	.	.	.	.	.	.	.	.	.	.	.	.	.	.	.	.	.	.	.	.	.	.	.	.	.	.	.	.	.	.	.	.	.	.	.	.	.	.	.	.	.	.	.	.	.	.	.	.	.	.	.	.	40dd	.	.
.	.	.	.	24cc	.	24ccc	.	24ccc	.	.	.	.	.	.	.	.	.	.	.	.	.	.	.	.	.	.	.	.	.	.	.	.	.	.	.	.	.	.	.	.	.	.	.	.	.	.	.	.	.	.	.	.	.	.	.	.	.	.	.	.	.
.	.	.	.	.	.	.	.	.	.	.	.	.	.	.	.	.	.	.	.	.	.	.	.	.	.	.	.	.	.	.	.	.	.	.	.	.	.	.	.	.	.	.	.	.	.	.	.	.	.	.	.	.	.	.	.	.	.	.	40cc	.	.
.	.	.	.	.	.	.	.	.	.	16g^	.	16b-^	.	16d^	.	.	.	.	.	.	.	16Re^/	.	16FF^>	.	.	.	.	.	.	.	16g^	.	16b-^<	16dd^>	.	16G^<	16d^>	.	16B-^<	16d^>	.	.	.	.	16d^	.	16dd^	.	16dd^	.	.	.	16g^<	16b-^>	.	.	.	.	.	.
.	.	.	.	.	.	.	.	.	.	.	.	.	.	.	.	.	.	.	.	.	.	.	.	.	.	.	.	.	.	.	.	.	.	.	.	.	.	.	.	.	.	.	.	.	.	.	.	.	.	.	.	.	.	.	.	.	.	.	40dd	.	.
.	.	.	.	24cJ	.	24ccJ	.	24ccJ	.	.	.	.	.	.	.	.	.	.	.	.	.	.	.	.	.	.	.	.	.	.	.	.	.	.	.	.	.	.	.	.	.	.	.	.	.	.	.	.	.	.	.	.	.	.	.	.	.	.	.	.	.
.	.	.	.	.	.	.	.	.	.	.	.	.	.	.	.	.	.	.	.	.	.	.	.	.	.	.	.	.	.	.	.	.	.	.	.	.	.	.	.	.	.	.	.	.	.	.	.	.	.	.	.	.	.	.	.	.	.	.	40ccJJJ	.	.
!	!	!	!	!LO:TUP:br	!	!LO:TUP:a:br	!	!LO:TUP:a:br	!	!	!	!	!	!	!	!	!	!	!	!	!	!	!	!	!	!	!	!	!	!	!	!	!	!	!	!	!	!	!	!	!	!	!	!	!	!	!	!	!	!	!	!	!	!	!	!	!	!	!	!	!
8FF^J	.	8FF'^>J 8C	.	24dL	.	24ddL	.	24ddL	.	(16b-^	.	(16dd^	.	(16f^	.	.	.	.	.	.	.	16Re^/	.	16FF^>	.	8B-^J	.	.	8B-^J	8B-^J	.	(16b-^	.	(<16dd^<	(>16ff^>	.	(<16B-^<	(>16f^>	.	(<16d^<	(>16f^>	.	8FF'<^<J	8C'>^>J	.	(16f^	.	(16ff^	.	(16ff^	.	.	.	(<16b-^<	(>16dd^>	.	8ddd^JT	.	40dd^LLLT	8ddJ	.
.	.	.	.	.	.	.	.	.	.	.	.	.	.	.	.	.	.	.	.	.	.	.	.	.	.	.	.	.	.	.	.	.	.	.	.	.	.	.	.	.	.	.	.	.	.	.	.	.	.	.	.	.	.	.	.	.	.	.	40ee	.	.
.	.	.	.	24dd	.	24ddd	.	24ddd	.	.	.	.	.	.	.	.	.	.	.	.	.	.	.	.	.	.	.	.	.	.	.	.	.	.	.	.	.	.	.	.	.	.	.	.	.	.	.	.	.	.	.	.	.	.	.	.	.	.	.	.	.
.	.	.	.	.	.	.	.	.	.	.	.	.	.	.	.	.	.	.	.	.	.	.	.	.	.	.	.	.	.	.	.	.	.	.	.	.	.	.	.	.	.	.	.	.	.	.	.	.	.	.	.	.	.	.	.	.	.	.	40dd	.	.
.	.	.	.	.	.	.	.	.	.	16cc'JJ)	.	16ee'JJ)	.	16g'JJ)	.	.	.	.	.	.	.	16Re^/JJ	.	16FF^>JJ	.	.	.	.	.	.	.	16cc'JJ)	.	16ee'<JJ)	16gg'>JJ)	.	16c'<JJ)	16g'>JJ)	.	16e'<JJ)	16g'>JJ)	.	.	.	.	16g'JJ)	.	16gg'JJ)	.	16gg'JJ)	.	.	.	16cc'<JJ)	16ee'>JJ)	.	.	.	.	.	.
.	.	.	.	.	.	.	.	.	.	.	.	.	.	.	.	.	.	.	.	.	.	.	.	.	.	.	.	.	.	.	.	.	.	.	.	.	.	.	.	.	.	.	.	.	.	.	.	.	.	.	.	.	.	.	.	.	.	.	40ee	.	.
.	.	.	.	24dJJ	.	24ddJJ	.	24ddJJ	.	.	.	.	.	.	.	.	.	.	.	.	.	.	.	.	.	.	.	.	.	.	.	.	.	.	.	.	.	.	.	.	.	.	.	.	.	.	.	.	.	.	.	.	.	.	.	.	.	.	.	.	.
.	.	.	.	.	.	.	.	.	.	.	.	.	.	.	.	.	.	.	.	.	.	.	.	.	.	.	.	.	.	.	.	.	.	.	.	.	.	.	.	.	.	.	.	.	.	.	.	.	.	.	.	.	.	.	.	.	.	.	40ddJJJ	.	.
!	!	!	!	!LO:TUP:br:r=8	!	!LO:TUP:a:br:r=8	!	!LO:TUP:a:br:r=8	!	!	!	!	!	!	!	!	!	!	!	!	!	!	!	!	!	!	!	!	!	!	!	!	!	!	!	!	!	!	!	!	!	!	!	!	!	!	!	!	!	!	!	!	!	!	!	!	!	!	!	!	!
8r	.	8r	.	/24eLL	.	24eeLL	.	24eeLL	.	16a^LL	.	16cc^LL	.	16e^LL	.	.	.	.	.	.	.	16Re^/LL	.	16C^>LL	.	8A^L	.	.	8A^L	8A^L	.	16a^LL	.	\16cc^<LL	/16ee^>LL	.	\16A^<LL	/16e^>LL	.	\16c^<LL	/16e^>LL	.	8r	8r	.	16e^LL	.	16ee^LL	.	16ee^LL	.	.	.	\16a^<LL	/16cc^>LL	.	8eee^Lt	.	4ryy	8ee^Lt>	.
.	.	.	.	24ee	.	24eee	.	24eee	.	.	.	.	.	.	.	.	.	.	.	.	.	.	.	.	.	.	.	.	.	.	.	.	.	.	.	.	.	.	.	.	.	.	.	.	.	.	.	.	.	.	.	.	.	.	.	.	.	.	.	.	.
.	.	.	.	.	.	.	.	.	.	16b-^	.	16dd^	.	16f^	.	.	.	.	.	.	.	16Re^/	.	16C^>	.	.	.	.	.	.	.	16b-^	.	16dd^<	16ff^>	.	16B-^<	16f^>	.	16d^<	16f^>	.	.	.	.	16f^	.	16ff^	.	16ff^	.	.	.	16b-^<	16dd^>	.	.	.	.	.	.
.	.	.	.	24eJ	.	24eeJ	.	24eeJ	.	.	.	.	.	.	.	.	.	.	.	.	.	.	.	.	.	.	.	.	.	.	.	.	.	.	.	.	.	.	.	.	.	.	.	.	.	.	.	.	.	.	.	.	.	.	.	.	.	.	.	.	.
!	!	!	!	!LO:TUP:br	!	!LO:TUP:a:br	!	!LO:TUP:a:br	!	!	!	!	!	!	!	!	!	!	!	!	!	!	!	!	!	!	!	!	!	!	!	!	!	!	!	!	!	!	!	!	!	!	!	!	!	!	!	!	!	!	!	!	!	!	!	!	!	!	!	!	!
8FF^	.	8FF'^> 8C	.	24fL	.	24ffL	.	24ffL	.	16a^	.	16cc^	.	16e^	.	.	.	.	.	.	.	16Re^/	.	16FF^>	.	8G^J	.	.	8G^J	8G^J	.	16a^	.	16cc^<	16ee^>	.	16A^<	16e^>	.	16c^<	16e^>	.	\8FF'<^<	/8C'>^>	.	16e^	.	16ee^	.	16ee^	.	.	.	16a^<	16cc^>	.	8fff^JT	.	.	8ff^JT>	.
.	.	.	.	24ff	.	24fff	.	24fff	.	.	.	.	.	.	.	.	.	.	.	.	.	.	.	.	.	.	.	.	.	.	.	.	.	.	.	.	.	.	.	.	.	.	.	.	.	.	.	.	.	.	.	.	.	.	.	.	.	.	.	.	.
.	.	.	.	.	.	.	.	.	.	16g^JJ	.	16b-^JJ	.	16d^JJ	.	.	.	.	.	.	.	16Re^/JJ	.	16FF^>JJ	.	.	.	.	.	.	.	16g^JJ	.	16b-^<JJ	16dd^>JJ	.	16G^<JJ	16d^>JJ	.	16B-^<JJ	16d^>JJ	.	.	.	.	16d^JJ	.	16dd^JJ	.	16dd^JJ	.	.	.	16g^<JJ	16b-^>JJ	.	.	.	.	.	.
.	.	.	.	24fJJ	.	24ffJJ	.	24ffJJ	.	.	.	.	.	.	.	.	.	.	.	.	.	.	.	.	.	.	.	.	.	.	.	.	.	.	.	.	.	.	.	.	.	.	.	.	.	.	.	.	.	.	.	.	.	.	.	.	.	.	.	.	.
*	*	*	*	*	*	*	*	*	*	*	*	*	*	*	*	*	*	*	*	*	*	*	*	*	*	*	*	*	*	*	*	*	*	*	*	*	*	*	*	*	*	*	*	*	*	*	*	*	*	*	*	*	*	*	*	*	*	*	*	*	*
=663	=663	=663	=663	=663	=663	=663	=663	=663	=663	=663	=663	=663	=663	=663	=663	=663	=663	=663	=663	=663	=663	=663	=663	=663	=663	=663	=663	=663	=663	=663	=663	=663	=663	=663	=663	=663	=663	=663	=663	=663	=663	=663	=663	=663	=663	=663	=663	=663	=663	=663	=663	=663	=663	=663	=663	=663	=663	=663	=663	=663	=663
*	*	*	*	*	*	*8va	*	*8va	*	*	*	*	*	*	*	*	*	*	*	*	*	*	*	*	*	*	*	*	*	*	*	*	*	*	*	*	*	*	*	*	*	*	*	*	*	*	*	*	*	*	*	*	*	*	*	*	*	*	*	*	*
!	!	!	!	!LO:TUP:br:r=8	!	!LO:TUP:a:br:r=8	!	!LO:TUP:a:br:r=8	!	!	!	!	!	!	!	!	!	!	!	!	!	!	!	!	!	!	!	!	!	!	!	!	!	!	!	!	!	!	!	!	!	!	!	!	!	!	!	!	!	!	!	!	!	!	!	!	!	!	!	!	!
8FF^L	.	8FF'^>L 8C	.	24gLL	.	24ggLL	.	24ggLL	.	(16b-^LL	.	(16dd^LL	.	(16f^LL	.	2r	.	2r	.	2r	.	16Re^/LL	.	16FF^>LL	.	8F^L	2r	.	/8F^L	8F^L	.	(16b-^LL	.	\(<16dd^<LL	/(>16ff^>LL	.	\(<16B-^<LL	/(>16f^>LL	.	\(<16d^<LL	/(>16f^>LL	.	\8FF'<^<L	/8C'>^>L	.	(16f^LL	.	(16ff^LL	.	(16ff^LL	.	2r	.	\(<16b-^<LL	(>/16dd^>LL	.	8ggg^LT	.	\8gg^LT	2ryy	.
.	.	.	.	24gg	.	24ggg	.	24ggg	.	.	.	.	.	.	.	.	.	.	.	.	.	.	.	.	.	.	.	.	.	.	.	.	.	.	.	.	.	.	.	.	.	.	.	.	.	.	.	.	.	.	.	.	.	.	.	.	.	.	.	.	.
.	.	.	.	.	.	.	.	.	.	16cc')	.	16ee')	.	16g')	.	.	.	.	.	.	.	16Re^/	.	16FF^>	.	.	.	.	.	.	.	16cc')	.	16ee'<)	16gg'>)	.	16c'<)	16g'>)	.	16e'<)	16g'>)	.	.	.	.	16g')	.	16gg')	.	16gg')	.	.	.	16cc'<)	16ee'>)	.	.	.	.	.	.
.	.	.	.	24gJ	.	24ggJ	.	24ggJ	.	.	.	.	.	.	.	.	.	.	.	.	.	.	.	.	.	.	.	.	.	.	.	.	.	.	.	.	.	.	.	.	.	.	.	.	.	.	.	.	.	.	.	.	.	.	.	.	.	.	.	.	.
!	!	!	!	!LO:TUP:br	!	!LO:TUP:a:br	!	!LO:TUP:a:br	!	!	!	!	!	!	!	!	!	!	!	!	!	!	!	!	!	!	!	!	!	!	!	!	!	!	!	!	!	!	!	!	!	!	!	!	!	!	!	!	!	!	!	!	!	!	!	!	!	!	!	!	!
8r	.	8r	.	24aL	.	24aaL	.	24aaL	.	16a^	.	16cc^	.	16e^	.	.	.	.	.	.	.	16Re^/	.	16C^>	.	8E^J	.	.	8E^J	8E^J	.	16a^	.	16cc^<	16ee^>	.	16A^<	16e^>	.	16c^<	16e^>	.	8r	8r	.	16e^	.	16ee^	.	16ee^	.	.	.	16a^<	16cc^>	.	8aaa^Jt	.	8aa^Jt	.	.
.	.	.	.	24aa	.	24aaa	.	24aaa	.	.	.	.	.	.	.	.	.	.	.	.	.	.	.	.	.	.	.	.	.	.	.	.	.	.	.	.	.	.	.	.	.	.	.	.	.	.	.	.	.	.	.	.	.	.	.	.	.	.	.	.	.
.	.	.	.	.	.	.	.	.	.	16b-^JJ	.	16dd^JJ	.	16f^JJ	.	.	.	.	.	.	.	16Re^/JJ	.	16C^>JJ	.	.	.	.	.	.	.	16b-^JJ	.	16dd^<JJ	16ff^>JJ	.	16B-^<JJ	16f^>JJ	.	16d^<JJ	16f^>JJ	.	.	.	.	16f^JJ	.	16ff^JJ	.	16ff^JJ	.	.	.	16b-^<JJ	16dd^>JJ	.	.	.	.	.	.
.	.	.	.	24aJJ	.	24aaJJ	.	24aaJJ	.	.	.	.	.	.	.	.	.	.	.	.	.	.	.	.	.	.	.	.	.	.	.	.	.	.	.	.	.	.	.	.	.	.	.	.	.	.	.	.	.	.	.	.	.	.	.	.	.	.	.	.	.
!	!	!	!	!LO:TUP:br:r=8	!	!LO:TUP:a:br:r=8	!	!LO:TUP:a:br:r=8	!	!	!	!	!	!	!	!	!	!	!	!	!	!	!	!	!	!	!	!	!	!	!	!	!	!	!	!	!	!	!	!	!	!	!	!	!	!	!	!	!	!	!	!	!	!	!	!	!	!	!	!	!
8FF^J	.	8FF'^>J 8C	.	24b-LL	.	24bb-LL	.	24bb-LL	.	16a^LL	.	16cc^LL	.	16e^LL	.	.	.	.	.	.	.	16Re^/LL	.	16FF^>LL	.	8D^L	.	.	/8D^L	8D^L	.	16a^LL	.	\16cc^<LL	/16ee^>LL	.	\16A^<LL	/16e^>LL	.	\16c^<LL	/16e^>LL	.	\8FF'<^<J	/8C'>^>J	.	16e^LL	.	16ee^LL	.	16ee^LL	.	.	.	\16a^<LL	/16cc^>LL	.	8bbb-^LT	.	\8bb-^LT	.	.
.	.	.	.	24bb-	.	24bbb-	.	24bbb-	.	.	.	.	.	.	.	.	.	.	.	.	.	.	.	.	.	.	.	.	.	.	.	.	.	.	.	.	.	.	.	.	.	.	.	.	.	.	.	.	.	.	.	.	.	.	.	.	.	.	.	.	.
.	.	.	.	.	.	.	.	.	.	16g^	.	16b-^	.	16d^	.	.	.	.	.	.	.	16Re^/	.	16FF^>	.	.	.	.	.	.	.	16g^	.	16b-^<	16dd^>	.	16G^<	16d^>	.	16B-^<	16d^>	.	.	.	.	16d^	.	16dd^	.	16dd^	.	.	.	16g^<	16b-^>	.	.	.	.	.	.
.	.	.	.	24b-J	.	24bb-J	.	24bb-J	.	.	.	.	.	.	.	.	.	.	.	.	.	.	.	.	.	.	.	.	.	.	.	.	.	.	.	.	.	.	.	.	.	.	.	.	.	.	.	.	.	.	.	.	.	.	.	.	.	.	.	.	.
!	!	!	!	!LO:TUP:br	!	!LO:TUP:a:br	!	!LO:TUP:a:br	!	!	!	!	!	!	!	!	!	!	!	!	!	!	!	!	!	!	!	!	!	!	!	!	!	!	!	!	!	!	!	!	!	!	!	!	!	!	!	!	!	!	!	!	!	!	!	!	!	!	!	!	!
8r	.	8r	.	24ccL	.	24cccL	.	24cccL	.	16b-^	.	16dd^	.	16f^	.	.	.	.	.	.	.	16Re^/	.	16C^>	.	8C^J	.	.	8C^J	8C^J	.	16b-^	.	16dd^<	16ff^>	.	16B-^<	16f^>	.	16d^<	16f^>	.	8r	8r	.	16f^	.	16ff^	.	16ff^	.	.	.	16b-^<	16dd^>	.	8cccc^JT	.	8ccc^JT	.	.
.	.	.	.	24ccc	.	24cccc	.	24cccc	.	.	.	.	.	.	.	.	.	.	.	.	.	.	.	.	.	.	.	.	.	.	.	.	.	.	.	.	.	.	.	.	.	.	.	.	.	.	.	.	.	.	.	.	.	.	.	.	.	.	.	.	.
.	.	.	.	.	.	.	.	.	.	16cc^JJ	.	16ee^JJ	.	16g^JJ	.	.	.	.	.	.	.	16Re^/JJ	.	16C^>JJ	.	.	.	.	.	.	.	16cc^JJ	.	16ee^<JJ	16gg^>JJ	.	16c^<JJ	16g^>JJ	.	16e^<JJ	16g^>JJ	.	.	.	.	16g^JJ	.	16gg^JJ	.	16gg^JJ	.	.	.	16cc^<JJ	16ee^>JJ	.	.	.	.	.	.
.	.	.	.	24ccJJ	.	24cccJJ	.	24cccJJ	.	.	.	.	.	.	.	.	.	.	.	.	.	.	.	.	.	.	.	.	.	.	.	.	.	.	.	.	.	.	.	.	.	.	.	.	.	.	.	.	.	.	.	.	.	.	.	.	.	.	.	.	.
*	*	*	*	*	*	*	*	*	*	*	*	*	*	*	*	*	*	*	*	*	*	*	*	*	*	*	*	*	*v	*v	*	*	*	*	*	*	*	*	*	*	*	*	*	*	*	*	*	*	*	*	*	*	*	*	*	*	*	*	*	*	*
*	*	*	*	*	*	*	*	*	*	*	*	*	*	*	*	*	*	*	*	*	*	*	*	*	*	*	*	*	*	*	*	*	*v	*v	*	*	*	*	*	*	*	*	*	*	*	*	*	*	*	*	*	*	*	*	*	*	*	*	*	*
*	*	*	*	*	*	*	*	*	*	*	*	*	*	*	*	*	*	*	*	*	*	*	*	*	*	*	*	*	*	*	*	*	*	*	*v	*v	*	*	*	*	*	*	*	*	*	*	*	*	*	*	*	*	*	*	*	*	*	*	*
*	*	*	*	*	*	*	*	*	*	*	*	*	*	*	*	*	*	*	*	*	*	*	*	*	*	*	*	*	*	*	*	*	*	*	*	*	*v	*v	*	*	*	*	*	*	*	*	*	*	*	*	*	*	*	*	*	*	*	*
*	*	*	*	*	*	*	*	*	*	*	*	*	*	*	*	*	*	*	*	*	*	*	*	*	*	*	*	*	*	*	*	*	*	*	*	*	*	*	*v	*v	*	*	*	*	*	*	*	*	*	*	*	*	*	*	*	*	*
*	*	*	*	*	*	*X8va	*	*X8va	*	*	*	*	*	*	*	*	*	*	*	*	*	*	*	*	*	*	*	*	*	*	*	*	*	*	*	*	*	*	*	*	*	*	*	*	*	*	*	*	*	*	*	*	*	*	*	*
*	*	*	*	*	*	*	*	*	*	*	*	*	*	*	*	*	*	*	*	*	*	*	*	*	*	*	*	*	*	*	*	*	*	*	*	*	*	*	*	*	*	*	*	*	*	*	*	*	*v	*v	*	*	*	*	*	*
*	*	*	*	*	*	*	*	*	*	*	*	*	*	*	*	*	*	*	*	*	*	*	*	*	*	*v	*v	*	*	*	*	*	*	*	*	*	*	*	*	*	*	*	*	*	*	*	*	*	*	*	*	*	*v	*v	*
=||	=||	=||	=||	=||	=||	=||	=||	=||	=||	=||	=||	=||	=||	=||	=||	=||	=||	=||	=||	=||	=||	=||	=||	=||	=||	=||	=||	=||	=||	=||	=||	=||	=||	=||	=||	=||	=||	=||	=||	=||	=||	=||	=||	=||	=||	=||	=||	=||	=||	=||	=||	=||	=||
*-	*-	*-	*-	*-	*-	*-	*-	*-	*-	*-	*-	*-	*-	*-	*-	*-	*-	*-	*-	*-	*-	*-	*-	*-	*-	*-	*-	*-	*-	*-	*-	*-	*-	*-	*-	*-	*-	*-	*-	*-	*-	*-	*-	*-	*-	*-	*-	*-	*-	*-	*-	*-	*-
!!!system-decoration: [(s1,s2,s3,s4,s5,s6,s7,s8,s9,s10,s11,s12,s13,s14,s15,s16,s17,s18,s19,s20,s21,s22,s23,s24,s25,s26,s27)]
!!!RDF**kern: > = above
!!!RDF**kern: < = below
!!!EED: Daniel Wright
!!!EEV: 2022/1/13
!!!EED2: Rafael Laurindo
!!!EEV2: 2022/04/23
!!!EED3: Bryan Bell
!!!EEV3: 2023/06/12
!!!Suter_Work_ID: Ger-10
!!!Suter_Example_Number: 693
!!!Suter_Example_ID: Ger-10/92/[75]3-9
!!!Premiere_Location: New York,United States
!!!Other_Tsigs: none
!!!Full_Unit_Duration: 18:32
!!!First_Publication_Year: unknown
!!!First_Public_Performance_Year: 1928
!!!Example_Total_Measures: 7
!!!Example_Timestamp_Duration: 6
!!!Example_Start_Tsig_Type: simple duple
!!!Example_Start_Tsig_Mean_Beat_Rate: 140
!!!Example_Start_Tsig_Beat_Rate: 140
!!!Example_Start_Tsig_Beat: quarter
!!!Example_Start_Tsig: 2/4
!!!Example_Start_Timestamp: 17:34
!!!Example_Start_Tempo_Expression: [Allegretto giocoso]
!!!Example_Start_Notated_Beat_Rate: {140}
!!!Example_Start_Notated_Beat: {quarter}
!!!Example_Start_Measure: 657
!!!Example_Metadata_Validated: Y
!!!Example_End_Timestamp: 17:40
!!!Example_End_Measure: 663
!!!Example_Dataset: T
!!!Editorial_Comments: No notated tempo. Example Start Notated Beat and Example Start Notated Beat Rate {quarter=140} calculated from recording (https://ubc-nml3-naxosmusiclibrary-com.eu1.proxy.openathens.net/catalogue/item.asp?cid=886444196628). Example Start Tempo Expression [With exuberance] based on most recent notated tempo expression (SWFU, m. 597).
!!!Death_Place: Hollywood,United States
!!!Death_Date: 11-Jul-1937
!!!Changing_Tsig: no
!!!Birth_Place: Brooklyn,United States
!!!Birth_Date: 26-Sep-1898
!!!Audio_Example_Quarter_Note_Tempo:
!!!Audio_Example_Duration:
